src/catppuccin-frappe-red-cursors/progress-10.svg

<?xml version="1.0" encoding="UTF-8" standalone="no"?>
<svg
   id="svg5327"
   width="32"
   height="32"
   version="1.1"
   sodipodi:docname="progress-10.svg"
   inkscape:version="1.1.2 (0a00cf5339, 2022-02-04)"
   xmlns:inkscape="http://www.inkscape.org/namespaces/inkscape"
   xmlns:sodipodi="http://sodipodi.sourceforge.net/DTD/sodipodi-0.dtd"
   xmlns:xlink="http://www.w3.org/1999/xlink"
   xmlns="http://www.w3.org/2000/svg"
   xmlns:svg="http://www.w3.org/2000/svg">
  <sodipodi:namedview
     id="namedview31212"
     pagecolor="#ffffff"
     bordercolor="#666666"
     borderopacity="1.0"
     inkscape:pageshadow="2"
     inkscape:pageopacity="0.0"
     inkscape:pagecheckerboard="0"
     showgrid="false"
     inkscape:zoom="25.96875"
     inkscape:cx="16.019254"
     inkscape:cy="16.019254"
     inkscape:window-width="1896"
     inkscape:window-height="1020"
     inkscape:window-x="9"
     inkscape:window-y="45"
     inkscape:window-maximized="1"
     inkscape:current-layer="svg5327" />
  <defs
     id="defs5329">
    <filter
       id="filter901"
       style="color-interpolation-filters:sRGB"
       width="1.143"
       height="1.104"
       x="-.07"
       y="-.05">
      <feGaussianBlur
         id="feGaussianBlur903"
         stdDeviation=".475" />
    </filter>
    <filter
       id="filter881"
       style="color-interpolation-filters:sRGB"
       width="1.12"
       height="1.12"
       x="-.06"
       y="-.06">
      <feGaussianBlur
         id="feGaussianBlur883"
         stdDeviation=".375" />
    </filter>
    <linearGradient
       id="linearGradient832"
       x1="21"
       x2="25"
       y1="16"
       y2="28"
       gradientUnits="userSpaceOnUse"
       xlink:href="#linearGradient830" />
    <linearGradient
       id="linearGradient830">
      <stop
         id="stop826"
         style="stop-color:#ffffff;stop-opacity:1"
         offset="0" />
      <stop
         id="stop828"
         style="stop-color:#ffffff;stop-opacity:0"
         offset="1" />
    </linearGradient>
    <filter
       id="filter865"
       style="color-interpolation-filters:sRGB"
       width="1.104"
       height="1.141"
       x="-.05"
       y="-.07">
      <feGaussianBlur
         id="feGaussianBlur867"
         stdDeviation=".196" />
    </filter>
    <filter
       id="filter832"
       style="color-interpolation-filters:sRGB"
       width="1.171"
       height="1.124"
       x="-.09"
       y="-.06">
      <feGaussianBlur
         id="feGaussianBlur834"
         stdDeviation=".57" />
    </filter>
    <filter
       id="filter840"
       style="color-interpolation-filters:sRGB"
       width="1.1251703"
       height="1.1688818"
       x="-0.062585167"
       y="-0.084440889">
      <feGaussianBlur
         id="feGaussianBlur842"
         stdDeviation=".235" />
    </filter>
    <filter
       id="filter844"
       style="color-interpolation-filters:sRGB"
       width="1.144"
       height="1.144"
       x="-0.071999998"
       y="-0.071999998">
      <feGaussianBlur
         id="feGaussianBlur846"
         stdDeviation=".45" />
    </filter>
    <filter
       id="filter914"
       style="color-interpolation-filters:sRGB"
       width="1.171"
       height="1.1243636"
       x="-0.085499998"
       y="-0.062181813">
      <feGaussianBlur
         id="feGaussianBlur916"
         stdDeviation=".57" />
    </filter>
  </defs>
  <path
     id="path855"
     style="opacity:0.2;fill:#000000;fill-opacity:1;stroke:none;stroke-width:2.72727251;stroke-linecap:round;stroke-linejoin:round;stroke-miterlimit:4;stroke-dasharray:none;stroke-opacity:1;filter:url(#filter844)"
     d="M 30.5,23 A 7.5,7.5 0 0 1 23,30.5 7.5,7.5 0 0 1 15.5,23 7.5,7.5 0 0 1 23,15.5 7.5,7.5 0 0 1 30.5,23 Z" />
  <path
     id="path840-3"
     style="opacity:1;fill:#303446;fill-opacity:1;stroke:none;stroke-width:2.72727251;stroke-linecap:round;stroke-linejoin:round;stroke-miterlimit:4;stroke-dasharray:none;stroke-opacity:1"
     d="m 29.999999,22.5 a 7.5,7.5 0 0 1 -7.5,7.5 7.5,7.5 0 0 1 -7.5,-7.5 7.5,7.5 0 0 1 7.5,-7.5 7.5,7.5 0 0 1 7.5,7.5 z" />
  <path
     id="path839"
     style="opacity:1;fill:#E78284;fill-opacity:1;stroke:none;stroke-width:2.36363626;stroke-linecap:round;stroke-linejoin:round;stroke-miterlimit:4;stroke-dasharray:none;stroke-opacity:1"
     d="m 28.999999,22.5 a 6.5,6.5 0 0 1 -6.5,6.5 6.5,6.5 0 0 1 -6.5,-6.5 6.5,6.5 0 0 1 6.5,-6.5 6.5,6.5 0 0 1 6.5,6.5 z" />
  <path
     id="path824"
     style="opacity:0.2;fill:#E78284;fill-opacity:1;stroke:none;stroke-width:2.36364;stroke-linecap:round;stroke-linejoin:round;stroke-miterlimit:4;stroke-dasharray:none;stroke-opacity:1"
     d="m 28.999999,22.5 a 6.5,6.5 0 0 1 -6.5,6.5 6.5,6.5 0 0 1 -6.5,-6.5 6.5,6.5 0 0 1 6.5,-6.5 6.5,6.5 0 0 1 6.5,6.5 z" />
  <path
     id="path843"
     style="color:#000000;font-style:normal;font-variant:normal;font-weight:normal;font-stretch:normal;font-size:medium;line-height:normal;font-family:sans-serif;font-variant-ligatures:normal;font-variant-position:normal;font-variant-caps:normal;font-variant-numeric:normal;font-variant-alternates:normal;font-feature-settings:normal;text-indent:0;text-align:start;text-decoration:none;text-decoration-line:none;text-decoration-style:solid;text-decoration-color:#000000;letter-spacing:normal;word-spacing:normal;text-transform:none;writing-mode:lr-tb;direction:ltr;text-orientation:mixed;dominant-baseline:auto;baseline-shift:baseline;text-anchor:start;white-space:normal;shape-padding:0;clip-rule:nonzero;display:inline;overflow:visible;visibility:visible;opacity:0.2;isolation:auto;mix-blend-mode:normal;color-interpolation:sRGB;color-interpolation-filters:linearRGB;solid-color:#000000;solid-opacity:1;vector-effect:none;fill:#000000;fill-opacity:1;fill-rule:nonzero;stroke:none;stroke-width:0.99716103;stroke-linecap:round;stroke-linejoin:round;stroke-miterlimit:4;stroke-dasharray:none;stroke-dashoffset:0;stroke-opacity:1;color-rendering:auto;image-rendering:auto;shape-rendering:auto;text-rendering:auto;enable-background:accumulate;filter:url(#filter840)"
     d="m 20.173688,19.663771 a 0.49926107,0.49800051 45 0 0 -0.357422,0.15625 c -0.845199,0.839259 -1.321692,1.98123 -1.322265,3.173829 -5.71e-4,1.192602 0.473991,2.337274 1.318359,3.18164 a 0.49926107,0.49800051 45 0 0 0.716797,0.002 0.49926107,0.49800051 45 0 0 -0.01172,-0.705078 C 19.860462,24.81544 19.491602,23.92573 19.492047,22.997803 19.492493,22.06988 19.861783,21.180119 20.51939,20.5271 a 0.49926107,0.49800051 45 0 0 -0.345703,-0.863282 z m 5.65625,0.0078 a 0.49926107,0.49800051 45 0 0 -0.359375,0.150391 0.49926107,0.49800051 45 0 0 0.01172,0.705078 c 0.656974,0.656973 1.025837,1.546682 1.02539,2.474609 -4.44e-4,0.927925 -0.369739,1.817686 -1.027343,2.470703 a 0.49926107,0.49800051 45 1 0 0.703125,0.707032 c 0.8452,-0.83926 1.321691,-1.981226 1.322265,-3.173829 5.7e-4,-1.192599 -0.473993,-2.337275 -1.318359,-3.18164 a 0.49926107,0.49800051 45 0 0 -0.357422,-0.152344 z m -4.25,1.410156 a 0.49718713,0.4977376 45 0 0 -0.349609,0.154297 c -0.470851,0.467599 -0.734585,1.104405 -0.734375,1.767578 2.31e-4,0.663258 0.265197,1.299414 0.736328,1.765625 a 0.49802171,0.4985731 45 1 0 0.701172,-0.708984 c -0.282909,-0.279927 -0.443234,-0.662315 -0.44336,-1.060534 -1.28e-4,-0.398217 0.158684,-0.779792 0.441407,-1.060547 A 0.49718713,0.4977376 45 0 0 21.579938,21.08174 Z m 2.828125,0.0078 a 0.49750563,0.49805645 45 0 0 -0.339844,0.851562 c 0.282908,0.27994 0.443233,0.660375 0.44336,1.058594 1.26e-4,0.39822 -0.158684,0.779794 -0.441407,1.060547 a 0.49718713,0.4977376 45 0 0 -0.002,0.714844 0.49718713,0.4977376 45 0 0 0.703125,-0.0098 c 0.470818,-0.467565 0.734585,-1.104403 0.734375,-1.767578 -2.32e-4,-0.663257 -0.267156,-1.299409 -0.738281,-1.765625 a 0.49750563,0.49805645 45 0 0 -0.359375,-0.142578 z" />
  <path
     id="path826"
     style="color:#000000;font-style:normal;font-variant:normal;font-weight:normal;font-stretch:normal;font-size:medium;line-height:normal;font-family:sans-serif;font-variant-ligatures:normal;font-variant-position:normal;font-variant-caps:normal;font-variant-numeric:normal;font-variant-alternates:normal;font-feature-settings:normal;text-indent:0;text-align:start;text-decoration:none;text-decoration-line:none;text-decoration-style:solid;text-decoration-color:#000000;letter-spacing:normal;word-spacing:normal;text-transform:none;writing-mode:lr-tb;direction:ltr;text-orientation:mixed;dominant-baseline:auto;baseline-shift:baseline;text-anchor:start;white-space:normal;shape-padding:0;clip-rule:nonzero;display:inline;overflow:visible;visibility:visible;opacity:1;isolation:auto;mix-blend-mode:normal;color-interpolation:sRGB;color-interpolation-filters:linearRGB;solid-color:#000000;solid-opacity:1;vector-effect:none;fill:#303446;fill-opacity:1;fill-rule:nonzero;stroke:none;stroke-width:0.99716103;stroke-linecap:round;stroke-linejoin:round;stroke-miterlimit:4;stroke-dasharray:none;stroke-dashoffset:0;stroke-opacity:1;color-rendering:auto;image-rendering:auto;shape-rendering:auto;text-rendering:auto;enable-background:accumulate"
     d="M 19.673828 19.164062 A 0.49926107 0.49800051 45 0 0 19.316406 19.320312 C 18.471207 20.159571 17.994714 21.301542 17.994141 22.494141 C 17.99357 23.686743 18.468132 24.831415 19.3125 25.675781 A 0.49926107 0.49800051 45 0 0 20.029297 25.677734 A 0.49926107 0.49800051 45 0 0 20.017578 24.972656 C 19.360603 24.315684 18.991743 23.425974 18.992188 22.498047 C 18.992634 21.570124 19.361924 20.680363 20.019531 20.027344 A 0.49926107 0.49800051 45 0 0 19.673828 19.164062 z M 25.330078 19.171875 A 0.49926107 0.49800051 45 0 0 24.970703 19.322266 A 0.49926107 0.49800051 45 0 0 24.982422 20.027344 C 25.639396 20.684317 26.008259 21.574026 26.007812 22.501953 C 26.007368 23.429878 25.638073 24.319639 24.980469 24.972656 A 0.49926107 0.49800051 45 1 0 25.683594 25.679688 C 26.528794 24.840428 27.005285 23.698462 27.005859 22.505859 C 27.006429 21.31326 26.531866 20.168584 25.6875 19.324219 A 0.49926107 0.49800051 45 0 0 25.330078 19.171875 z M 21.080078 20.582031 A 0.49718713 0.4977376 45 0 0 20.730469 20.736328 C 20.259618 21.203927 19.995884 21.840733 19.996094 22.503906 C 19.996325 23.167164 20.261291 23.80332 20.732422 24.269531 A 0.49750518 0.498056 45 1 0 21.433594 23.560547 C 21.150685 23.280607 20.99036 22.898219 20.990234 22.5 C 20.990106 22.101783 21.148918 21.720208 21.431641 21.439453 A 0.49718713 0.4977376 45 0 0 21.080078 20.582031 z M 23.908203 20.589844 A 0.49750563 0.49805645 45 0 0 23.568359 21.441406 C 23.851267 21.721346 24.011592 22.101781 24.011719 22.5 C 24.011845 22.89822 23.853035 23.279794 23.570312 23.560547 A 0.49718713 0.4977376 45 0 0 23.568359 24.275391 A 0.49718713 0.4977376 45 0 0 24.271484 24.265625 C 24.742302 23.79806 25.006069 23.161222 25.005859 22.498047 C 25.005627 21.83479 24.738703 21.198638 24.267578 20.732422 A 0.49750563 0.49805645 45 0 0 23.908203 20.589844 z" />
  <path
     id="path887"
     style="color:#000000;font-style:normal;font-variant:normal;font-weight:normal;font-stretch:normal;font-size:medium;line-height:normal;font-family:sans-serif;font-variant-ligatures:normal;font-variant-position:normal;font-variant-caps:normal;font-variant-numeric:normal;font-variant-alternates:normal;font-feature-settings:normal;text-indent:0;text-align:start;text-decoration:none;text-decoration-line:none;text-decoration-style:solid;text-decoration-color:#000000;letter-spacing:normal;word-spacing:normal;text-transform:none;writing-mode:lr-tb;direction:ltr;text-orientation:mixed;dominant-baseline:auto;baseline-shift:baseline;text-anchor:start;white-space:normal;shape-padding:0;clip-rule:nonzero;display:inline;overflow:visible;visibility:visible;opacity:0.2;isolation:auto;mix-blend-mode:normal;color-interpolation:sRGB;color-interpolation-filters:linearRGB;solid-color:#000000;solid-opacity:1;vector-effect:none;fill:#000000;fill-opacity:1;fill-rule:nonzero;stroke:none;stroke-width:1.99915862;stroke-linecap:round;stroke-linejoin:round;stroke-miterlimit:4;stroke-dasharray:none;stroke-dashoffset:0;stroke-opacity:1;filter:url(#filter914);color-rendering:auto;image-rendering:auto;shape-rendering:auto;text-rendering:auto;enable-background:accumulate"
     d="M 2.4621529,1.5013617 C 1.9309785,1.5284396 1.5140652,1.9671028 1.5136622,2.4993344 L 1.5000008,22.497849 c -0.00133,1.135729 1.5899877,1.394218 1.9477239,0.316383 0.9111453,-2.735331 3.0350839,-5.175772 5.1132629,-6.284689 1.2756664,-0.649071 2.6350314,-1.020439 3.9324044,-1.030149 1.281347,-0.0096 2.502207,0.335057 3.524763,0.881722 1.033732,0.555669 2.012905,-0.817786 1.15146,-1.615114 L 3.1940131,1.7669669 C 2.9959677,1.5830739 2.7319551,1.487259 2.4621529,1.5013617 Z" />
  <path
     id="path848"
     style="color:#000000;font-style:normal;font-variant:normal;font-weight:normal;font-stretch:normal;font-size:medium;line-height:normal;font-family:sans-serif;font-variant-ligatures:normal;font-variant-position:normal;font-variant-caps:normal;font-variant-numeric:normal;font-variant-alternates:normal;font-feature-settings:normal;text-indent:0;text-align:start;text-decoration:none;text-decoration-line:none;text-decoration-style:solid;text-decoration-color:#000000;letter-spacing:normal;word-spacing:normal;text-transform:none;writing-mode:lr-tb;direction:ltr;text-orientation:mixed;dominant-baseline:auto;baseline-shift:baseline;text-anchor:start;white-space:normal;shape-padding:0;clip-rule:nonzero;display:inline;overflow:visible;visibility:visible;opacity:1;isolation:auto;mix-blend-mode:normal;color-interpolation:sRGB;color-interpolation-filters:linearRGB;solid-color:#000000;solid-opacity:1;vector-effect:none;fill:#303446;fill-opacity:1;fill-rule:nonzero;stroke:none;stroke-width:1.99915862;stroke-linecap:round;stroke-linejoin:round;stroke-miterlimit:4;stroke-dasharray:none;stroke-dashoffset:0;stroke-opacity:1;color-rendering:auto;image-rendering:auto;shape-rendering:auto;text-rendering:auto;enable-background:accumulate"
     d="M 1.9621521,1.0013629 C 1.4309777,1.0284408 1.0140644,1.467104 1.0136614,1.9993356 L 1,21.997849 c -0.00133,1.135729 1.5899877,1.394218 1.9477239,0.316383 0.9111453,-2.735331 3.0350839,-5.175772 5.1132629,-6.284689 1.2756664,-0.649071 2.6350312,-1.020439 3.9324042,-1.030149 1.281347,-0.0096 2.502207,0.335057 3.524763,0.881722 1.033732,0.555669 2.012905,-0.817786 1.15146,-1.615114 L 2.6940123,1.2669681 C 2.4959669,1.0830751 2.2319543,0.9872602 1.9621521,1.0013629 Z" />
  <path
     id="path823"
     style="opacity:1;fill:#E78284;fill-opacity:1;stroke:none;stroke-width:1.67926061;stroke-linecap:round;stroke-linejoin:round;stroke-miterlimit:4;stroke-dasharray:none;stroke-opacity:1"
     d="M 2.01406,2 2,22 C 3,19 5.2466416,16.39612 7.6028347,15.142847 9.022616,14.418876 10.539543,14.009906 12,14 c 1.435898,-0.0097 2.817191,0.3681 4,1 z" />
</svg>

<svg xmlns="http://www.w3.org/2000/svg" width="32" height="32">
    <defs>
        <filter id="b" width="1.125" height="1.169" x="-.063" y="-.084" style="color-interpolation-filters:sRGB">
            <feGaussianBlur stdDeviation=".235"/>
        </filter>
        <filter id="a" width="1.144" height="1.144" x="-.072" y="-.072" style="color-interpolation-filters:sRGB">
            <feGaussianBlur stdDeviation=".45"/>
        </filter>
        <filter id="d" width="1.171" height="1.124" x="-.085" y="-.062" style="color-interpolation-filters:sRGB">
            <feGaussianBlur stdDeviation=".57"/>
        </filter>
    </defs>
    <path d="M30.5 23a7.5 7.5 0 0 1-7.5 7.5 7.5 7.5 0 0 1-7.5-7.5 7.5 7.5 0 0 1 7.5-7.5 7.5 7.5 0 0 1 7.5 7.5" style="opacity:.2;fill:#000;fill-opacity:1;stroke:none;stroke-width:2.72727251;stroke-linecap:round;stroke-linejoin:round;stroke-miterlimit:4;stroke-dasharray:none;stroke-opacity:1;filter:url(#a)"/>
    <path d="M30 22.5a7.5 7.5 0 0 1-7.5 7.5 7.5 7.5 0 0 1-7.5-7.5 7.5 7.5 0 0 1 7.5-7.5 7.5 7.5 0 0 1 7.5 7.5" style="opacity:1;fill:#303446;fill-opacity:1;stroke:none;stroke-width:2.72727251;stroke-linecap:round;stroke-linejoin:round;stroke-miterlimit:4;stroke-dasharray:none;stroke-opacity:1"/>
    <path d="M29 22.5a6.5 6.5 0 0 1-6.5 6.5 6.5 6.5 0 0 1-6.5-6.5 6.5 6.5 0 0 1 6.5-6.5 6.5 6.5 0 0 1 6.5 6.5" style="opacity:1;fill:#e78284;fill-opacity:1;stroke:none;stroke-width:2.36363626;stroke-linecap:round;stroke-linejoin:round;stroke-miterlimit:4;stroke-dasharray:none;stroke-opacity:1"/>
    <path d="M29 22.5a6.5 6.5 0 0 1-6.5 6.5 6.5 6.5 0 0 1-6.5-6.5 6.5 6.5 0 0 1 6.5-6.5 6.5 6.5 0 0 1 6.5 6.5" style="opacity:.2;fill:#e78284;fill-opacity:1;stroke:none;stroke-width:2.36364;stroke-linecap:round;stroke-linejoin:round;stroke-miterlimit:4;stroke-dasharray:none;stroke-opacity:1"/>
    <path d="M20.174 19.664a.5.498 45 0 0-.358.156 4.48 4.48 0 0 0-1.322 3.174 4.5 4.5 0 0 0 1.318 3.181.5.498 45 0 0 .717.002.5.498 45 0 0-.012-.705 3.5 3.5 0 0 1-1.025-2.474c0-.928.37-1.818 1.027-2.47a.5.498 45 0 0-.345-.864m5.656.008a.5.498 45 0 0-.36.15.5.498 45 0 0 .012.705 3.5 3.5 0 0 1 1.026 2.475 3.48 3.48 0 0 1-1.028 2.47.5.498 45 1 0 .703.707 4.48 4.48 0 0 0 1.323-3.173 4.5 4.5 0 0 0-1.319-3.182.5.498 45 0 0-.357-.152m-4.25 1.41a.497.498 45 0 0-.35.154 2.49 2.49 0 0 0 .002 3.533.498.499 45 1 0 .701-.709 1.494 1.494 0 0 1-.001-2.12.497.498 45 0 0-.352-.858m2.828.008a.498.498 45 0 0-.34.851 1.49 1.49 0 0 1 .002 2.12.497.498 45 0 0-.002.714.497.498 45 0 0 .703-.01 2.49 2.49 0 0 0-.004-3.533.5.5 45 0 0-.359-.143" style="color:#000;font-style:normal;font-variant:normal;font-weight:400;font-stretch:normal;font-size:medium;line-height:normal;font-family:sans-serif;font-variant-ligatures:normal;font-variant-position:normal;font-variant-caps:normal;font-variant-numeric:normal;font-variant-alternates:normal;font-feature-settings:normal;text-indent:0;text-align:start;text-decoration:none;text-decoration-line:none;text-decoration-style:solid;text-decoration-color:#000;letter-spacing:normal;word-spacing:normal;text-transform:none;writing-mode:lr-tb;direction:ltr;text-orientation:mixed;dominant-baseline:auto;baseline-shift:baseline;text-anchor:start;white-space:normal;shape-padding:0;clip-rule:nonzero;display:inline;overflow:visible;visibility:visible;opacity:.2;isolation:auto;mix-blend-mode:normal;color-interpolation:sRGB;color-interpolation-filters:linearRGB;solid-color:#000;solid-opacity:1;vector-effect:none;fill:#000;fill-opacity:1;fill-rule:nonzero;stroke:none;stroke-width:.99716103;stroke-linecap:round;stroke-linejoin:round;stroke-miterlimit:4;stroke-dasharray:none;stroke-dashoffset:0;stroke-opacity:1;color-rendering:auto;image-rendering:auto;shape-rendering:auto;text-rendering:auto;enable-background:accumulate;filter:url(#b)"/>
    <path d="M19.674 19.164a.5.498 45 0 0-.358.156 4.48 4.48 0 0 0-1.322 3.174 4.5 4.5 0 0 0 1.319 3.182.5.498 45 0 0 .716.002.5.498 45 0 0-.011-.705 3.5 3.5 0 0 1-1.026-2.475c0-.928.37-1.818 1.028-2.47a.5.498 45 0 0-.346-.864m5.656.008a.5.498 45 0 0-.36.15.5.498 45 0 0 .012.705 3.5 3.5 0 0 1 1.026 2.475c0 .928-.37 1.818-1.028 2.47a.5.498 45 1 0 .704.708 4.48 4.48 0 0 0 1.322-3.174 4.5 4.5 0 0 0-1.319-3.182.5.498 45 0 0-.357-.152m-4.25 1.41a.497.498 45 0 0-.35.154 2.49 2.49 0 0 0 .002 3.534.498.498 45 1 0 .702-.71 1.494 1.494 0 0 1-.002-2.12.497.498 45 0 0-.352-.858m2.828.008a.498.498 45 0 0-.34.851 1.49 1.49 0 0 1 .002 2.12.497.498 45 0 0-.002.714.497.498 45 0 0 .703-.01 2.49 2.49 0 0 0-.003-3.533.5.5 45 0 0-.36-.142" style="color:#000;font-style:normal;font-variant:normal;font-weight:400;font-stretch:normal;font-size:medium;line-height:normal;font-family:sans-serif;font-variant-ligatures:normal;font-variant-position:normal;font-variant-caps:normal;font-variant-numeric:normal;font-variant-alternates:normal;font-feature-settings:normal;text-indent:0;text-align:start;text-decoration:none;text-decoration-line:none;text-decoration-style:solid;text-decoration-color:#000;letter-spacing:normal;word-spacing:normal;text-transform:none;writing-mode:lr-tb;direction:ltr;text-orientation:mixed;dominant-baseline:auto;baseline-shift:baseline;text-anchor:start;white-space:normal;shape-padding:0;clip-rule:nonzero;display:inline;overflow:visible;visibility:visible;opacity:1;isolation:auto;mix-blend-mode:normal;color-interpolation:sRGB;color-interpolation-filters:linearRGB;solid-color:#000;solid-opacity:1;vector-effect:none;fill:#303446;fill-opacity:1;fill-rule:nonzero;stroke:none;stroke-width:.99716103;stroke-linecap:round;stroke-linejoin:round;stroke-miterlimit:4;stroke-dasharray:none;stroke-dashoffset:0;stroke-opacity:1;color-rendering:auto;image-rendering:auto;shape-rendering:auto;text-rendering:auto;enable-background:accumulate"/>
    <path d="M2.462 1.501a1 1 0 0 0-.948.998L1.5 22.498c-.001 1.136 1.59 1.394 1.948.316.91-2.735 3.035-5.176 5.113-6.284 1.276-.65 2.635-1.02 3.932-1.03a7.4 7.4 0 0 1 3.525.881c1.034.556 2.013-.818 1.152-1.615L3.194 1.767a1 1 0 0 0-.732-.266" style="color:#000;font-style:normal;font-variant:normal;font-weight:400;font-stretch:normal;font-size:medium;line-height:normal;font-family:sans-serif;font-variant-ligatures:normal;font-variant-position:normal;font-variant-caps:normal;font-variant-numeric:normal;font-variant-alternates:normal;font-feature-settings:normal;text-indent:0;text-align:start;text-decoration:none;text-decoration-line:none;text-decoration-style:solid;text-decoration-color:#000;letter-spacing:normal;word-spacing:normal;text-transform:none;writing-mode:lr-tb;direction:ltr;text-orientation:mixed;dominant-baseline:auto;baseline-shift:baseline;text-anchor:start;white-space:normal;shape-padding:0;clip-rule:nonzero;display:inline;overflow:visible;visibility:visible;opacity:.2;isolation:auto;mix-blend-mode:normal;color-interpolation:sRGB;color-interpolation-filters:linearRGB;solid-color:#000;solid-opacity:1;vector-effect:none;fill:#000;fill-opacity:1;fill-rule:nonzero;stroke:none;stroke-width:1.99915862;stroke-linecap:round;stroke-linejoin:round;stroke-miterlimit:4;stroke-dasharray:none;stroke-dashoffset:0;stroke-opacity:1;filter:url(#d);color-rendering:auto;image-rendering:auto;shape-rendering:auto;text-rendering:auto;enable-background:accumulate"/>
    <path d="M1.962 1.001A1 1 0 0 0 1.014 2L1 21.998c-.001 1.136 1.59 1.394 1.948.316.91-2.735 3.035-5.176 5.113-6.284 1.276-.65 2.635-1.02 3.932-1.03a7.4 7.4 0 0 1 3.525.881c1.034.556 2.013-.818 1.152-1.615L2.694 1.267a1 1 0 0 0-.732-.266" style="color:#000;font-style:normal;font-variant:normal;font-weight:400;font-stretch:normal;font-size:medium;line-height:normal;font-family:sans-serif;font-variant-ligatures:normal;font-variant-position:normal;font-variant-caps:normal;font-variant-numeric:normal;font-variant-alternates:normal;font-feature-settings:normal;text-indent:0;text-align:start;text-decoration:none;text-decoration-line:none;text-decoration-style:solid;text-decoration-color:#000;letter-spacing:normal;word-spacing:normal;text-transform:none;writing-mode:lr-tb;direction:ltr;text-orientation:mixed;dominant-baseline:auto;baseline-shift:baseline;text-anchor:start;white-space:normal;shape-padding:0;clip-rule:nonzero;display:inline;overflow:visible;visibility:visible;opacity:1;isolation:auto;mix-blend-mode:normal;color-interpolation:sRGB;color-interpolation-filters:linearRGB;solid-color:#000;solid-opacity:1;vector-effect:none;fill:#303446;fill-opacity:1;fill-rule:nonzero;stroke:none;stroke-width:1.99915862;stroke-linecap:round;stroke-linejoin:round;stroke-miterlimit:4;stroke-dasharray:none;stroke-dashoffset:0;stroke-opacity:1;color-rendering:auto;image-rendering:auto;shape-rendering:auto;text-rendering:auto;enable-background:accumulate"/>
    <path d="M2.014 2 2 22c1-3 3.247-5.604 5.603-6.857C9.023 14.419 10.54 14.01 12 14a8.4 8.4 0 0 1 4 1z" style="opacity:1;fill:#e78284;fill-opacity:1;stroke:none;stroke-width:1.67926061;stroke-linecap:round;stroke-linejoin:round;stroke-miterlimit:4;stroke-dasharray:none;stroke-opacity:1"/>
</svg>
